X:214
T:Katie Taylor
R:reel
N:aka Paddy Taylor's
D:Catherine McElvoy & Felix Dolan
Z:transcribed by Dave Marshall
M:C|
K:Dmix
|: D2FA GEAG | FDFA d2fa | geag fddc | ABcA EFGE |
D2FA GEAG | FDFA d2fa | geag fddc | A2GE FDD2 :|
|: fdfa g2ag | fdfa g2ag | fdcA G2FG |ABcA dcA2 |
fdfa g2ag | fdfa g2ag | fddc ABcA | EFGE FDD2 :|
